X:1
T:Title
%%score { ( 1 3 5 ) | ( 2 4 6 ) }
L:1/8
M:4/4
K:Eb
V:1 treble nm="Grand Piano"
V:3 treble 
V:5 treble 
V:2 bass 
V:4 bass 
V:6 bass 
V:1
 z4 z2[Q:1/4=100] E>F | G>G G>A G2 F>E | B>[GB] [GB]>[Ac] [GB]2 G>B | c>c B>B A>G F>E | [DF]6 z2 | %5
 G>G G>A G2 F>E |[M:35/32] B>[GB][GB]>[Ac] [GB]2 [Ge]-(3:2:4[Ge]3/2-[Ge]/4[Ac]3/4-[Ac]/8 | %7
[M:4/4] z4 z/ G3/2- G/4 z/4 z/ z |[M:3/4] z6 |[M:11/32] G/4-G/4-G/4-G/4-G/4-G/-<G/ z/ | %10
[M:39/32] z/4 z/4 z/4 z/4 z/4 z/4 z/4 z/4 z/4 z/4 z/4 z/4 z/4 z/4 z/4 z/4 z/4 z/4 z/4 z/4 z/4 z/4 z/4 z/4 z/4 z/4 z/ e/4-e/4-e/4-e/4-e/4-e/4-e/-<e/ z/4 | %11
 z/4 z/4 z/4 z/4 z/4 z/4 z/ e/4-e/4-e/4-e/-<e/ z/4 z/4 z/4 z/4 z/4 z/4 z/4 z/4 z/4 z/4 z/4 z/4 z/4 z/4 z/4 z/4 z/4 z/4 z/4 z/4 z/4 z/4 z/ | %12
[M:4/4] [GB]GBe d2 c2 | [DB]6 z2 | [GB][FA][EG][GB] [Ge]3 [Bd] | %15
[M:35/32] [Ac]3/2-[Ac]/4- [Ac]4- [Ac]/4 z2 z3/4 | %16
[M:4/4] (9:8:9[GB]/G3/2 E2 F/ G3/2G/[DF]/-[DF]3/2[DF]/ |[M:3/4] E6 |] %18
V:2
 z4 z2 [E,G,]>[E,A,E] | [E,B,E]>[E,B,E] [E,B,E]>[E,CE] [E,B,E]2 [E,A,E]>[E,G,] | %2
 [E,G,E]>[E,B,] [E,E]>[E,E] [E,E]2 [E,B,E]>[G,B,E] | %3
 [A,E]>[A,E] [G,B,E]>[G,B,E] [F,B,D]>[E,B,E] [D,B,]>[C,=A,B,] | [B,,B,]2 B,>B, B,2 [G,B,]>[F,B,D] | %5
 [E,B,E]>[E,B,E] [E,B,E]>[E,CE] [E,B,E]2 [E,A,E]>[E,G,] | %6
[M:35/32] [E,G,E]>[E,B,][E,E]>[E,E] [E,E]2 [E,B,]-(3:2:4[E,B,]3/2-[E,B,]/4[E,C]3/4-[E,C]/8 | %7
[M:4/4] z4 z/ [B,E]3/2- [B,E]/4 z/4 z/ z |[M:3/4] z6 | %9
[M:11/32] B,/4-B,/4-B,/4-B,/4-B,/4-B,/-<B,/ z/ | %10
[M:39/32] z/4 z/4 z/4 z/4 z/4 z/4 z/4 z/4 z/4 z/4 z/4 z/4 z/4 z/4 z/4 z/4 z/4 z/4 z/4 z/4 z/4 z/4 z/4 z/4 z/4 z/4 z/[K:treble] C/4-C/4-C/4-C/4-C/4-C/4-C/-<C/ z/4 | %11
 z/ [A,A]/4-[A,A]/4-[A,A]/-<[A,A]/[A,A]/4-[A,A]/4-[A,A]/-<[A,A]/E/ z/4 z/4 z/4 z/4 z/4 z/4 z/4 z/4 z/4 z/4 z/4 z/4[K:bass] z/4 z/4 z/4 z/4 z/4 z/4 z/4 z/4 z/4 z/ | %12
[M:4/4] .E2 .[G,E]2 z4 | [B,,B,]2 B,>B, B,>A, [G,B,E]>[F,B,F] | [E,B,]2 [E,B,]2 [E,B,]3 [G,E] | %15
[M:35/32] [A,E]2 A,2 A,2[K:treble] [A,CA]-(3:2:4[A,CA]3/2-[A,CA]/4[A,EA]3/4-[A,EA]/8 | %16
[M:4/4][K:bass] (9:8:9[E,E]/[E,B,E]3/2 [G,B,]2 [A,CE]/ [B,E]3/2[B,E]/[B,,A,]/-[B,,A,]3/2[B,,A,]/ | %17
[M:3/4] [E,G,]6 |] %18
V:3
 x8 | x8 | x8 | x8 | z4 z z/ A,/ E>F | x8 |[M:35/32] x35/4 | %7
[M:4/4] (5:4:5[GB]2 G/ E/-E3/2F/ G3/4 z/4 z (3:2:2[DF]2 [DF] |[M:3/4] x6 | %9
[M:11/32] z/4 z/4 z/4 z/4 z/4 z/4 z/ F3/4 | %10
[M:39/32] E/E/4-E/4-E/-<E/G/4-G/4-G/-<G/[GB]/[Ge]/4-[Ge]/4-[Ge]/4-[Ge]/4-[Ge]/4-[Ge]/4-[Ge]/4-[Ge]/4-[Ge]/-<[Ge]/ z/4 z/4 z/4 z/4 z/4 z/4 z/ d3/4 | %11
 c/ z/4 z/4 z/4 z/4 z/4 z/4 z/4 z/4 z/4 z/4 z/4 z/4 z/ [GB]/4-[GB]/4-[GB]/4-[GB]/4-[GB]/4-[GB]/4-[GB]/4-[GB]/4-[GB]/-<[GB]/ z/4 z/4 z/4 z/4 z/4 z/4 z/ [Ac]3/4 | %12
[M:4/4] x8 | z4 z z/ B,/ G>A | x8 |[M:35/32] z2 E2 E2 e-(3:2:4e3/2-e/4c3/4-c/8 |[M:4/4] x481/60 | %17
[M:3/4] x6 |] %18
V:4
 x8 | x8 | x8 | x8 | x8 | x8 |[M:35/32] x35/4 | %7
[M:4/4] (5:4:5[E,E]2 [E,B,E]/ [G,B,]/-[G,B,]3/2[A,CE]/ [B,E]3/4 z/4 z (3:2:2[B,,A,]2 [B,,A,] | %8
[M:3/4] E,6 |[M:11/32] [E,E]/4-[E,E]/4-[E,E]/4-[E,E]/4-[E,E]/-<[E,E]/[E,A,E]3/4 | %10
[M:39/32] [E,G,B,]/[E,G,B,]/4-[E,G,B,]/4-[E,G,B,]/-<[E,G,B,]/[E,B,E]/4-[E,B,E]/4-[E,B,E]/-<[E,B,E]/[E,B,]/[E,B,]/4-[E,B,]/4-[E,B,]/4-[E,B,]/4-[E,B,]/4-[E,B,]/4-[E,B,]/4-[E,B,]/4-[E,B,]/-<[E,B,]/[K:treble][A,A]/4-[A,A]/4-[A,A]/4-[A,A]/4-[A,A]/-<[A,A]/[A,DA]3/4 | %11
 [A,EA]/E/4-E/4-E/-<E/-[C-E]/4C/4-C/-<C/-[A,-CA-]/4[A,A]/4-[E,-A,E-A]/4[E,E]/4-[E,E]/4-[E,E]/4-[E,E]/4-[E,E]/4-[E,E]/4-[E,E]/4-[E,E]/-<[E,E]/[K:bass][E,E]/4-[E,E]/4-[E,E]/4-[E,E]/4-[E,E]/-<[E,E]/[E,E]3/4 | %12
[M:4/4] E,-[E,B,E]E,-[E,B,G] [F,B,F]2 [F,=A,E]2 | x8 | x8 |[M:35/32] x6[K:treble] x11/4 | %16
[M:4/4][K:bass] x8 |[M:3/4] x6 |] %18
V:5
 x8 | x8 | x8 | x8 | x8 | x8 |[M:35/32] x35/4 |[M:4/4] x8 |[M:3/4] E6- | %9
[M:11/32] E/4 z/4 z/4 z/4 z/4 z/4 z/4 z/4 z/4 z/ |[M:39/32] x39/4 | %11
 z/ c/4-c/4-c/4-c/-<c/ z/4 z/4 z/4 z/ c3/4 z/4 z/4 z/4 z/4 z/4 z/4 z/4 z/4 z/4 z/ [GB]/4-[GB]/4-[GB]/4-[GB]/4-[GB]/4-[GB]/-<[GB]/ z/ | %12
[M:4/4] x8 | x8 | x8 |[M:35/32] x35/4 |[M:4/4] x481/60 |[M:3/4] x6 |] %18
V:6
 x8 | x8 | x8 | x8 | x8 | x8 |[M:35/32] x35/4 |[M:4/4] x8 |[M:3/4] G,6- | %9
[M:11/32] G,/4 z/4 z/4 z/4 z/4 z/4 z/4 z/4 z/4 z/ |[M:39/32] x7[K:treble] x11/4 | %11
 x7[K:bass] x11/4 |[M:4/4] x8 | x8 | x8 |[M:35/32] x6[K:treble] x11/4 |[M:4/4][K:bass] x8 | %17
[M:3/4] x6 |] %18

